X:1
T: A minor Arranged by Samuel Holyoke, 1803
T:Isaac Watts, 1717 Psalm 32)      66. 86. (S. M.)
T:Copeland Transcribed from The Columbian Repository, 1803.
%%score [ 1 2 3 ]
L:1/8
Q:1/4=200
M:2/2
K:C
V:1 treble nm="Tr." snm="Tr."
V:2 treble-8 nm="T." snm="T."
V:3 bass nm="B." snm="B."
V:1
 A8 | c4 e4 | (e2 d2) (c2 B2) | c4 ^G4 | A4 G4 | (G2 F2) (E2 D2) | E8 | z4 c4 | (d2 c2) (B2 c2) | %9
 B4 (B2 AB) | (c2 B2) (A2 ^G2) | A6 B2 | (c2 A2) (A2 F2) | E4 ^D4 | E8 | %15
 z4"^They mourn their follies past," B4 | c4 B4 | c4 (B2 A2) | ^G6 E2 | A4 (B2 A2) | G4 B4 | c8 | %22
 z4"^Their lips and lives without deceit," c4 | d4 (c2 B2) | c4 (B2 A2) | B4 A4 | ^G6 G2 | %27
 (A2 c2) B4 | A4 ^G4 | A8 | z4 E4 | E4 ^G4 | ^G4 A4 | B6 ^G2 | A4 (A2 c2) | (B2 A2) c4 | d6 B2 | %37
 c4 c4 | B4 B4 | c4 c4 | d6 B2 | c4 (d2 cB) | A4 ^G4 | A8 | z4 ^G4 | (A3 B) c4 | c4 B4 | c6 B2 | %48
 (c2 G2) (c2 e2) | d4 c4 | B8 | z4 A4 | ^G4 G4 | (A2 B2) (A2 Bc) | (d2 c2) (B2 A2) | ^G6 G2 | %56
 (A3 B) (c2 B2) | A4 ^G4 | A8 |] %59
V:2
"^O   blessed  souls  are   they  Whose  sins are covered o'er!      Di – vine – ly    blest,   to     whom  the   Lord  Imputes their guilt no  more." E8 | %1
 A4 B4 | (c2 B2) (A2 ^G2) | A4 B4 | c4 (c2 e2) | (e2 d2) (c2 B2) | c8 | z4 e4 | (f2 e2) (d2 c2) | %9
 d4 d4 | (e2 d2) (c2 B2) | c6 d2 | e4 (c2 A2) | G4 ^F4 | E8 | %15
 z4"^And keep their hearts with care;                                                          Shall  prove their faith sincere.    While  I  con –" B4 | %16
 c4 B4 | e4 (d2 c2) | B6 B2 | c4 d4 | e4 f4 | e8 | z4 e4 | f4 (e2 d2) | e4 (d2 c2) | d4 c4 | %26
 B6 B2 | (c2 e2) (f2 ed) | c4 B4 | A8 | z4 E4 | A4 B4 | %32
"^–cealed my guilt, I felt the fest'ring wound; Till  I  confessed my sins to thee, And  ready  pardon  found.         Let sin–ners learn to pray,  Let" B4 c4 | %33
 d6 B2 | c4 c4 | d4 e4 | f6 d2 | e4 c4 | d4 d4 | e4 e4 | f6 e2 | e4 (f2 ed) | c4 TB4 | A8 | z4 B4 | %45
 (c3 d) e4 | e4 d4 | e6 d2 | %48
"^saints keep near the throne;      Our  help, in  times   of           deep    dis –tress,     Is   found    in          God  a  – lone." e4 e4 | %49
 f4 e4 | d8 | z4 d4 | e4 B4 | (c2 d2) (d2 e2) | (f2 e2) (d2 c2) | B6 B2 | (e2 f2) (e2 d2) | %57
 c4 TB4 | A8 |] %59
V:3
 A,,8 | A,,4 E,4 | E,4 E,4 | A,,4 E,4 | A,4 C4 | G,4 G,4 | C,8- | C,4 C,4 | G,6 C,2 | G,4 F,4 | %10
 E,4 E,4 | A,6 G,2 | C,4 A,,4 | B,,4 B,,4 | E,8 | z4 E,4 | E,4 E,4 | E,4 E,4 | E,6 ^G,2 | %19
 A,4 (G,2 F,2) | E,4 D,4 | C,8- | C,4 C,4 | G,4 G,4 | E,4 (F,2 G,2) | D,4 A,,4 | E,6 D,2 | %27
 C,4 D,4 | E,4 E,4 | A,,8 | z4 A,,4 | C,4 E,4 | D,4 C,4 | B,,6 E,2 | A,4 A,4 | (G,2 F,2) E,4 | %36
 D,6 G,2 | C,4 C,4 | G,4 G,4 | (C3 B,) A,4 | ^G,6 G,2 | A,4 D,4 | E,4 E,4 | A,,8 | z4 E,4 | %45
 A,4 A,4 | G,4 G,4 | C,6 G,2 | C4 C4 | B,4 C4 | %50
"^_______________________\nEdited by B. C. Johnston, 2016\n   1. First and second staffs exchanged.\n   2. Measure 10, \nTreble\n: originally half-eighth-two sixteenths, changed to half-quarter-two eighths (as in m. 42).\n" G,8- | %51
 G,4 F,4 | E,4 E,4 | (A,2 G,2) (F,2 E,2) | D,6 ^D,2 | E,6 D,2 | (C,2 D,2) (C,2 D,2) | E,4 E,4 | %58
 A,,8 |] %59

